X: 06021
T: DUNCAN MacGILLIVRAY
T: ('s WELCOME TO DUBLIN, N.H., U.S.A.)
C: Bob McQuillen 28 July'81
B: Bob's Note Book 6 #21
%R: jig
Z: 2021 John Chambers <jc:trillian.mit.edu>
M: 6/8
L: 1/8
K: D
B, \
| A,DD DFE | DB,A, A,DE | FBA F>EF | D2B, B,DF |\
| AdA BdA | B>cd A2F | GBG FAB | A>FD E2B, |
| A,DD DFE | D>B,A, A,2F | FBA FDE | F2B Bde |\
| fef dBd | AFD E2A | B>cd AFE | FDD D2 |]
|: e \
| f>ef dBA | FDF A2d | e>de fef | dBB B2A |\
| dfd e2d | dBd B2A | d>BA FDF | EDD D2 :|
%%begintext align
%% It gave me
%% such pleasure to write this tune for the
%% great piper with The Battlefield Band.
%%endtext
